X: 1
T:Up the Raw
M:6/8
L:1/8
K:Eb
E2GA3|G2BF3|(EF)G(AB)c}B2GE3|EEGAA2|GGcFF2|EFGABc|B2GE3||_ddB(ce2)|FFEFA
2|_ddBce2|G2BE3|_ddBce2|FFEFA2|ddBce2|GGBE3|
% Output from ABC2Win  Version 2.1 i on 3/4/2000
